svgs/solid/square-o.svg

<svg xmlns="http://www.w3.org/2000/svg" viewBox="0 0 448 512"><!-- Font Awesome Pro 6.0.0-alpha2 by @fontawesome - https://fontawesome.com License - https://fontawesome.com/license (Commercial License) --><path d="M224 176C179.891 176 144 211.891 144 256S179.891 336 224 336S304 300.109 304 256S268.109 176 224 176ZM384 32H64C28.654 32 0 60.654 0 96V416C0 451.346 28.654 480 64 480H384C419.348 480 448 451.346 448 416V96C448 60.654 419.348 32 384 32ZM224 384C153.422 384 96 326.578 96 256S153.422 128 224 128S352 185.422 352 256S294.578 384 224 384Z"/></svg>

<svg xmlns="http://www.w3.org/2000/svg" viewBox="0 0 448 512"><!--! Font Awesome Pro 6.0.0-alpha3 by @fontawesome - https://fontawesome.com License - https://fontawesome.com/license (Commercial License) --><path d="M224 176C179.9 176 144 211.9 144 256s35.89 80 80 80s80-35.89 80-80S268.1 176 224 176zM384 32H64C28.65 32 0 60.65 0 96v320c0 35.35 28.65 64 64 64h320c35.35 0 64-28.65 64-64V96C448 60.65 419.3 32 384 32zM224 384c-70.58 0-128-57.42-128-128s57.42-128 128-128s128 57.42 128 128S294.6 384 224 384z"/></svg>
